recipes/twist/icon.svg

<svg height="64" viewBox="0 0 64 64" width="64" xmlns="http://www.w3.org/2000/svg"><path d="m49 34.375c0 .882-.454 1.702-1.203 2.17l-5.698 3.561-2.198 7.682c-.044.155-.157.238-.303.238-.041 0-.11-.01-.186-.062l-4.696-3.242-10.248 6.404c-.639.4-1.468.014-1.468-.855v-10.93c0-.873.357-1.643 1.279-2.175.923-.532 23.122-13.347 23.212-13.398.135-.079.289-.173.587-.173.522 0 .922.379.922 1.098zm-35-3.375v4.496c0 .038-.027.071-.065.078 0 0-3.569.695-4.414.859-.843.163-1.523-.393-1.523-1.257v-9.815c0-.797.502-1.451 1.375-1.584.873-.132 23.635-3.569 23.635-3.569.972-.165 1.584-.212 1.99-.212.36 0 1.002.391 1.002.9v1.722c0 .035-.023.066-.058.076l-20.797 6.168c-.985.348-1.145.951-1.145 2.138zm42-31h-48c-4.418 0-8 3.582-8 8v3.51s19.277 4.883 19.561 4.955c.305.078.439.171.439.321 0 .203-.094.214-.26.214h-19.74v39c0 4.418 3.582 8 8 8h48c4.418 0 8-3.582 8-8v-48c0-4.418-3.582-8-8-8z" fill-rule="evenodd"/></svg>

<?xml version="1.0" encoding="UTF-8"?>
<svg width="64px" height="64px" viewBox="0 0 64 64" version="1.1" xmlns="http://www.w3.org/2000/svg" xmlns:xlink="http://www.w3.org/1999/xlink">
    <!-- Generator: Sketch 41.2 (35397) - http://www.bohemiancoding.com/sketch -->
    <title>Pin_tab_twist</title>
    <desc>Created with Sketch.</desc>
    <defs></defs>
    <g id="Page-1" stroke="none" stroke-width="1" fill="none" fill-rule="evenodd">
        <g id="Pin_tab_twist" fill="#000000">
            <path d="M49,34.375 C49,35.257 48.546,36.077 47.797,36.545 L42.099,40.106 L39.901,47.788 C39.857,47.943 39.744,48.026 39.598,48.026 C39.557,48.026 39.488,48.016 39.412,47.964 L34.716,44.722 L24.468,51.126 C23.829,51.526 23,51.14 23,50.271 L23,39.341 C23,38.468 23.357,37.698 24.279,37.166 C25.202,36.634 47.401,23.819 47.491,23.768 C47.626,23.689 47.78,23.595 48.078,23.595 C48.6,23.595 49,23.974 49,24.693 L49,34.375 Z M14,31 L14,35.496 C14,35.534 13.973,35.567 13.935,35.574 C13.935,35.574 10.366,36.269 9.521,36.433 C8.678,36.596 7.998,36.04 7.998,35.176 L7.998,25.361 C7.998,24.564 8.5,23.91 9.373,23.777 C10.246,23.645 33.008,20.208 33.008,20.208 C33.98,20.043 34.592,19.996 34.998,19.996 C35.358,19.996 36,20.387 36,20.896 L36,22.618 C36,22.653 35.977,22.684 35.942,22.694 L15.145,28.862 C14.16,29.21 14,29.813 14,31 L14,31 Z M56,0 L8,0 C3.582,0 0,3.582 0,8 L0,11.51 C0,11.51 19.277,16.393 19.561,16.465 C19.866,16.543 20,16.636 20,16.786 C20,16.989 19.906,17 19.74,17 L0,17 L0,56 C0,60.418 3.582,64 8,64 L56,64 C60.418,64 64,60.418 64,56 L64,8 C64,3.582 60.418,0 56,0 L56,0 Z" id="Page-1"></path>
        </g>
    </g>
</svg>
